X: 42890
T: Will This Winter Never End?
R: hornpipe
M: 4/4
K: Ddorian
DC|:A,DDE FEFG|AFFF cFAF|GEEE CDEC|A,3 B, CA,G,C|
A,DDE FEFG|AFFF cFAF|(3def ed cAGE|1 ED^CE D2 D=C:|2 ED^CE D2de||
|:f2 ed cAGE|ED^CE DCA,A|FDAD BDAD|(3EFG AB c2 Bc|
Afed cAGE|ED^CE DCA,G,|A,DDD CA,G,C|1 A,B,CA, D2 de:|2 A,B,CA, D2 DC||

